X:56
T:Ra str per Rod - The Road To Rod (Enzo Conti)
R:Scottish
C:Tre Martelli: Omi e Paiz 2c
M:2/4
L:1/16
K:G
GA|B>BBB BdcB|A2AA A2Bc|\
decd f2e2|d2B2 G2A2|\
B>BBB BdcB|
A2AA A2Bc|decd fecA|G2~B2 G2:|\
K:c
|:cd|e2ee dcBc|
A2AA BGDG|A2A2 G2F2|E4 c2d2|\
e2ee dcBc|A2AA BGDG|A2A2 B2B2|c6:|
